!! 00010] TT[TB
!! Eigene Aufnahme
!!!OTL: Ji de er nana Dzider-nana                          (Name)
!!!ARE: Neimeng
!! Ethnic Group: Menggu
!! MM, S. 1292
!!!SCT: C0573
!!!YEM: Copyright 1995, estate of Helmut Schaffrath.
**kern
*ICvox
*Ivox
*M4/4
*k[]
*C:
{8.g
16g
8e
8d
8c
8d
8g
8r
=1
8.d
16d
8d
8c
4d
4r}
=2
{8.g
16g
8e
8d
8c
8d
8g
8r
=3
8.d
16d
8d
8c
4d
4r}
=4
{8g
8g
8e
16d
16e
8g
8g
4g
=5
4.G
8A
8B
8A
4d}
=6
{8d
8e
8d
8B
8a
8B
4d
=7
1G}
==
!!!AGN: NN
!! Saenger: Chao Lun Batou, der das Buch nur zum Nachschlagen
!!    benutzte und ansonsten auswendig sang. Da er aus dem Osten der
!!    Neimeng kommt, kennt er nicht so viele Lieder des Westens.
!!    Alle Lieder wurden mit erkaelteter, halber Stimme in meinem
!!    Zimmer gesungen. FOTO VORHANDEN (DIAS)  31.3.87
!!    Leicht rhythm. variiert.
!!!ONB: ESAC (Essen Associative Code) Database: CHINA
!!!AMT: simple quadruple
!!!AIN: vox
!!!EED: Helmut Schaffrath
!!!EEV: 1.0
*-
